X:1
T:Title
%%score ( 1 2 ) { 3 | 4 }
L:1/8
Q:1/4=108
M:4/4
K:D
V:1 treble nm="Grand Piano, Unnamed-000"
V:2 treble 
V:3 bass nm="Choir Pad, Caithness"
V:4 bass 
V:1
 [A,D]2 [DF]2 [DG]2 [CA]2 | z4 D2 z2 | [DF]2 [DG]2 [=CA]2 [B,B]2 | B-[CB] [DA]6 | %4
w: By~Scottish~Psalter,~1635 * * *||||
 [FA]2 [FB]2 [Ec]2 [Dd]2 | [CF]2 [DG]2 [DA]2 [DB]2 | [CA]2 [DG]2 [DF]2 [DE]2 | [CE]2 D6- | %8
w: ||||
 D2 z2 z4 |] %9
w: |
V:2
 x8 | [A,D]2 [G,C]2 A,B, [CE]2 | x8 | .B,2 z2 z4 | x8 | x8 | x8 | x8 | x8 |] %9
V:3
 F,2 A,2 G,2 E,2 | F,2 G,2 F,2 A,2 | A,2 G,2 F,2 G,2 | D,E, F,6 | F,2 F,2 A,2 B,2 | %5
 F,2 B,2 A,2 G,2 | E,2 G,2 A,2 B,2 | A,G, F,6- | F,2 z2 z4 |] %9
V:4
 D,2 D,2 B,,2 A,,2 | z2 E,2 D,2 A,,2 | D,2 B,,2 A,,2 G,,2 | G,,2 D,6 | D,2 D,2 C,2 B,,2 | %5
 A,,2 G,,2 F,,2 G,,2 | A,,2 B,,2 D,2 G,,2 | A,,2 D,6- | D,2 z2 z4 |] %9

